X: 0503
T: Jenny's Bawbee
P: Jenny's Bawbee
C:Joshua Campbell 1778
R:Strathspey (8x24) ABA
B:RSCDS 5-3
Z:Anselm Lingnau <anselm@strathspey.org>
M:C
L:1/8
K:D
F!Segno!|"D"a>b a>g f<dd>f|"Em"g>B e>d "A7"c<AA>f|\
   "D"a>b a>g f<dd>f|"G"[BG]<B "A7"[cG]>A "D"[d3F3] f|
   "D"a>b a>g f<dd>f|"G"g>B "E7"e>d "A"c<AA>f|\
   "D"a>b a>g "Bm"f<dd>f|"G"[BG]<B "A7"[cG]>A "D"[d3F3]"Fine"||
d/e/|"D"f>d "A7"g>e "D"f<dd3/2e//f//|"G"g>B"E7"e>d "A"c<AA3/2d//e//|\
   "D"f>d "A7"g>e "D"f<d f<a|"G"[BG]<B "A7"[cG]>A "D"[d3F3] d/e/|
   "D"f>d "A7"g>e "D"f<dd3/2e//f//|"G"g>B"E7"e>d "A"c<AA>f|\
   "D"[ad]>b "A7"[ac]>g "Bm"f<dd>f|"G"[BG]<B "A7"[cG]>A "D"[d3F3]"D.S."||
%%center Book05/0503-Jennys_Bawbee-AL.abc

%%sep 1 1 500
%%sep 1 1 500

